X: 20783
T: The Beggars Meal Pokes.
C: Compos'd by King James the 6th
%R: reel
B: James Oswald "The Caledonian Pocket Companion" v.2 p.78 #3
Z: 2019 John Chambers <jc:trillian.mit.edu>
M: C|
L: 1/8
K: G
"_Moderately Quick"G |\
(GA)(Bc) d2GG | Gggf e3d |\
gbag (ed)eg | dBTAG A3 :|
|: B |\
(cB)c.d e2ef | (gf)g.a {g}f3d |\
(ba)(gf) (e2f)g | .d(BA)B g3 :|


